img/icons/telegram-icon.svg

<svg width="25" height="25" viewBox="0 0 25 25" fill="none" xmlns="http://www.w3.org/2000/svg">
<path d="M22.9705 2.21797L0.821646 10.8033C-0.0696536 11.203 -0.371122 12.0037 0.60618 12.4382L6.28836 14.2533L20.027 5.71865C20.7771 5.18284 21.5451 5.32572 20.8843 5.91511L9.08463 16.6541L8.71396 21.1989C9.05729 21.9006 9.68591 21.9038 10.0869 21.5551L13.3514 18.4501L18.9425 22.6585C20.2411 23.4312 20.9476 22.9325 21.227 21.5162L24.8943 4.06162C25.275 2.31817 24.6257 1.55001 22.9705 2.21797Z" fill="white"/>
</svg>

<svg width="25" height="25" fill="none" xmlns="http://www.w3.org/2000/svg"><path d="M22.97 2.218L.823 10.803c-.892.4-1.193 1.2-.216 1.635l5.682 1.815L20.027 5.72c.75-.536 1.518-.393.857.196l-11.8 10.74-.37 4.544c.343.702.972.705 1.373.356l3.264-3.105 5.591 4.209c1.3.772 2.006.274 2.285-1.143l3.667-17.454c.381-1.744-.268-2.512-1.923-1.844z" fill="#fff"/></svg>
